X: 053
M: 6/8
L: 1/8
K: C
V: 1
|: e/f/ |\
gec cBc | AFF F2f/g/ | afd ded | BGG G2G |\
V: 2 clef=bass middle=d
z |\
c3 e2f | e3 c3 | c3 g3 | c3 f3 |\
e3 e2f | e3 c3 | e3 g3 | c'3 c2 :|
|: z |\
c3 e3 | f3 f3 | d3 d3 | g3 g2f |\
e3 e2f | e3 c3 | e3 g3 | c'3 c2 :|


